public/svgs/regular/joystick.svg

<svg xmlns="http://www.w3.org/2000/svg" viewBox="0 0 448 512"><!-- Font Awesome Pro 6.0.0-alpha2 by @fontawesome - https://fontawesome.com License - https://fontawesome.com/license (Commercial License) --><path d="M384 352.039H248V221.32C314.447 206.756 355.084 135.459 327.025 67.332C314.895 37.877 289.578 14.859 259.146 5.42C187.768 -16.719 120.127 31.754 112.625 99.85C106.5 156.711 144.125 209.074 200 221.32V352.039H128C128 334.369 113.674 320.047 96 320.047S64 334.369 64 352.039C28.801 352.039 0 380.832 0 416.023V448.016C0 483.207 28.801 512 64 512H384C419.199 512 448 483.207 448 448.016V416.023C448 380.832 419.199 352.039 384 352.039ZM160 112.098C160 76.73 188.625 48.113 224 48.113S288 76.73 288 112.098C288 147.463 259.375 176.082 224 176.082S160 147.463 160 112.098ZM400 448.016C400 456.85 392.836 464.012 384 464.012H64C55.164 464.012 48 456.85 48 448.016V416.023C48 407.189 55.164 400.027 64 400.027H384C392.836 400.027 400 407.189 400 416.023V448.016Z"/></svg>

<svg xmlns="http://www.w3.org/2000/svg" viewBox="0 0 448 512"><!--! Font Awesome Pro 6.5.1 by @fontawesome - https://fontawesome.com License - https://fontawesome.com/license (Commercial License) Copyright 2023 Fonticons, Inc. --><path d="M224 48a64 64 0 1 1 0 128 64 64 0 1 1 0-128zm24 173.4c50.3-11 88-55.8 88-109.4C336 50.1 285.9 0 224 0S112 50.1 112 112c0 53.6 37.7 98.4 88 109.4V320h48V221.4zM96 320c-17.7 0-32 14.3-32 32c-35.3 0-64 28.7-64 64v32c0 35.3 28.7 64 64 64H384c35.3 0 64-28.7 64-64V416c0-35.3-28.7-64-64-64H128c0-17.7-14.3-32-32-32zm0 80H384c8.8 0 16 7.2 16 16v32c0 8.8-7.2 16-16 16H64c-8.8 0-16-7.2-16-16V416c0-8.8 7.2-16 16-16H96z"/></svg>
